X: 38579
T: Stomach Steinway Man
R: reel
M: 4/4
K: Dminor
d2d2 AddA|dAde fedc|d2d2 Addf|edef gefg|
a2af f/f/f af|g2ge e/e/e ge|f2fd d/d/d fd|eA A/A/A fgfe:|
dA A/A/A dAeA|fA A/A/A dAfA|eA A/A/A gAeA|A/A/A eA gAeA|
dA A/A/A dAeA|fA A/A/A dAfA|eA A/A/A BA A/A/A|A/A/A A/A/A BA A/A/A|
dA A/A/A dAeA|fA A/A/A dAfA|gd d/d/d gdad|bd d/d/d gdbd|
agfa gfeg|fedf ed^ce|dA A/A/A BAGB|AGFA GFEF||D8||

